X: 321
T: Bezm-i Gamda Âh Edip
C: Mustafa Coşkun
O: Turkey
F: http://compmusic.upf.edu/node/140
N: ussak--sarki--devrihindi--bezm-i_gamda--mustafa_coskun
N: makam= ussak
N: form= sarki
N: usul= devrihindi = 7/4
M: 7/4
L: 1/16
K: C _2/4B   
Q: 1/4=90
%%MIDI tuningsystem comma53
d4 c4 d2e2 c4 B2A2 G2A2 B2d2  | c4 B4 c2d2 B4 A2G2 ^3/4F2G2 A2B2  | 
w:  ARANAĞME  |   | 
c2d2 e2f2 e2f2 g2a2 g4 a2g2 f2e2  | \
w:   | 
d4 e4 d2c2 c2B2 B2A2 A8  | 
w:   | 
d4 c4 d2e2 c4 B2A2 G2A2 B2d2  | c4 B4 c2d2 B4 A2G2 ^3/4F2G2 A2B2  | 
w:  ARANAĞME  |   | 
c2d2 e2f2 e2f2 g2a2 g4 a2g2 f2e2  | \
w:   | 
d4 e4 d2c2 c2B2 B2A2 A8  | 
w:   | 
G4 c4 B2d2 c4 B2A2 A8  | G8 c4 c4 B2A2 d2c2 e2c2  | \
w:  Bezm_ *  i  *  gam *  *  da   |  âh  e dip  *  *  câ  | 
c2B2 d4 B2A2 A4 f4 e4 e2d2  | 
w:  nâ *  *  nı  *  an *  dım   | 
d2c2 e4 e2d2 d6dc cBBA A4  | G4 c4 B2d2 c4 B2A2 A8  | 
w:  ağ *  *  la *  dım   SAZ  |  Bezm_ *  i  *  gam *  *  da   | 
G8 c4 c4 B2A2 d2c2 e2c2  | c2B2 d4 B2A2 A4 f4 e4 e2d2  | \
w:  âh  e dip  *  *  câ  |  nâ *  *  nı  *  an *  dım   | 
d2c2 e4 e2d2 d6de dcBc d4  | 
w:  ağ *  *  la *  dım   SAZ  | 
d2a2 g2f2 e2d2 {e}d8 c8  | B2c2 {d}c2B2 B2A2 A8 B2A2 B2d2  | \
w:  Yâr_ *  *  *  i *  *  le  ev  |  vel  *  *  *  *  ge *  çen  dev  | 
d2c2 B2A2 G4 d2c2 e4 c2B2 d4  | 
w:  râ *  *  *  nı  an *  *  dım   | 
d2c2 B4 B2A2 A6de dcBc d4  | d2a2 g2f2 e2d2 {e}d8 c8  | 
w:  ağ *  *  la *  dım   SAZ  |  Yâr_ *  *  *  i *  *  le  ev  | 
B2c2 {d}c2B2 B2A2 A8 B2A2 B2d2  | \
w:  vel  *  *  *  *  ge *  çen  dev  | 
d2c2 B2A2 G4 d2c2 e4 c2B2 d4  | 
w:  râ *  *  *  nı  an *  *  dım   | 
d2c2 B4 B2A2 A6^3/4fg agfg a4  | c'4 b4 b2a2 a2c'2 b2a2 a8  | 
w:  ağ *  *  la *  dım   SAZ  |  Gün *  de  *  bir  *  *  *  kez   | 
g4 ^f4 _7/8e2d2 d2=e2 d2c2 e4 d2c2  | \
w:  gör *  me *  sem  *  *  *  hâ  | 
c4 B4 B2A2 A4 f4 e4 e2d2  | d2c2 e4 e2d2 d6^3/4fg agfg a4  | 
w:  lim  *  n'o *  lur  *  der  |  ken  *  *  be *  nim   SAZ  | 
c'4 b4 b2a2 a2c'2 b2a2 a8  | g4 ^f4 _7/8e2d2 d2=e2 d2c2 e4 d2c2  | \
w:  Gün *  de  *  bir  *  *  *  kez   |  gör *  me *  sem  *  *  *  hâ  | 
c4 B4 B2A2 A4 f4 e4 e2d2  | 
w:  lim  *  n'o *  lur  *  der  | 
d2c2 e4 e2d2 d6de dcBc d4  | d2a2 g2f2 e2d2 {e}d8 c8  | 
w:  ken  *  *  be *  nim   SAZ  |  Yâr_ *  *  *  i *  *  le  ev  | 
B2c2 {d}c2B2 B2A2 A8 B2A2 B2d2  | \
w:  vel  *  *  *  *  ge *  çen  dev  | 
d2c2 B2A2 G4 d2c2 e4 c2B2 d4  | 
w:  râ *  *  *  nı  an *  *  dım   | 
d2c2 B4 B2A2 A6de dcBc d4  | d2a2 g2f2 e2d2 {e}d8 c8  | 
w:  ağ *  *  la *  dım   SAZ  |  Yâr_ *  *  *  i *  *  le  ev  | 
B2c2 {d}c2B2 B2A2 A8 B2A2 B2d2  | \
w:  vel  *  *  *  *  ge *  çen  dev  | 
d2c2 B2A2 G4 d2c2 e4 c2B2 d4  | 
w:  râ *  *  *  nı  an *  *  dım   | 
d2c2 B4 B2A2 A6dc cBBA A4  | |


